X:1720
T:Bond Store, The
R:reel
S:Session in Cleary's back room, Miltown Malbay 1991
Z:id:hn-reel-304
M:C|
K:A
Ac~c2 eAce|df~f2 ecAc|df~f2 edcA|~B2cA BAFE|
Ac~c2 eAce|df~f2 ecAc|df~f2 edcA|1 B2cB AdcB:|2 B2cB ABcd||
|:ea~a2 fecf|eAcA BAFA|ea~a2 fece|fBBA Bcde|
aece Aece|dBBA BAFA|df~f2 edcA|1 BABc ABcd:|2 BABc AdcB||


